X:2583
T:Polska ur C.E. Södlings notbok
B:[[Notböcker/Svenska Folkmelodier]] utgivna av [[Personer/CE Södling|C.E. Södling]]
B:http://www.smus.se/earkiv/fmk/browselarge.php?lang=sw&katalogid=Upprop+26c&bildnr=00069
Z:Nils L
R:Polska
O:Småland
M:3/4
L:1/16
K:G
G2G2 A2A2 B4 | B2B2 c2c2 d4 | gece edBd dcAc | cBAG FGEF D2EF |
G2G2 A2A2 B4 | c2c2 d2d2 B2g2 | gece dgBd ceAc |1 BdFA G4 z4 :|2
BdFA G4 z2Bd |: d2c2 c4 A2c2 | c2B2 B4 G4 | G4 F2A2 c2F2 | A2>G2 G2G2 B2d2 | 
d2c2 c4 A2c2 | c2B2 B4 G2>A2 | G4 F2A2 c2e2 |1 1d2F2 G4 z2Bd :|2 d2F2 G4 z4 |]
(:musicend:)
(:music:)
